X:1
T:While the Years Are Rolling On
T:While the Years Are Rolling On
T:John Robson Sweney
T:Harriet Burn McKeever, 1878
T:Public Domain Courtesy of the Cyber Hymnal™
T:Public Domain Courtesy of the Cyber Hymnal™
C:John Robson Sweney
Z:Public Domain
Z:Courtesy of the Cyber Hymnal™
%%score ( 1 2 ) ( 3 4 )
L:1/8
Q:1/4=83
M:4/4
K:Bb
V:1 treble 
V:2 treble 
V:3 bass 
V:4 bass 
V:1
 [DB]>[Ec] | [Fd]>[Fd] [Fd]>[DB] [Ec]<[DB] [DB]>[DB] | [Ec]>[DB] [Ec]<[Fd] [DB]2 [DB]>[Ec] | %3
w: 1.~In a|world so full of weep- ing, While the|years are roll- ing on, Chris- tian|
w: 2.~There’s no|time to waste in sigh- ing, While the|years are roll- ing on; Time is|
w: 3.~Let us|strength- en one an- o- ther, While the|years are roll- ing on; Seek to|
w: 4.~Friends we|love are quick- ly fly- ing, While the|years are roll- ing on; No more|
 [Fd]>[Fd] [Fd]>[DB] [Ec]<[DB] [DB]>[DB] | [=Ec]>[EG] [EB]<[EB] [FA]2 [Fc]>[Fd] | %5
w: souls the watch are keep- ing, While the|years are roll- ing on. While our|
w: fly- ing, souls are dy- ing, While the|years are roll- ing on. Lov- ing|
w: raise a fall- en bro- ther, While the|years are roll- ing on. This is|
w: part- ing, no more dy- ing, While the|years are roll- ing on. In the|
 [Fe]>[Fd] [Fc]>[FB] [Fd]2 [Fd]>[Ec] | [Ec]<[DB] [EB]>[EG] [DF]2 [B,D]>[CE] | %7
w: jour- ney we pur- sue, With the|ha- ven still in view, There is|
w: words a soul may win From the|wretch- ed paths of sin; We may|
w: work for ev- ery hand, Till, through-|out cre- a- tion’s land, Ar- mies|
w: world be- yond the tomb Sor- row|ne- ver- more can come, When we|
 [DF]>[DB] [DB]>[Ec] [Fd]2 [Ge]>[Ge] | [Fd]>[DB] [Ec]<[Ec] !fermata![DB]2 ||"^Refrain" F/GF/ | %10
w: work for us to do, While the|years are roll- ing on.||
w: bring the wan- derers in, While the|years are roll- ing on.||
w: for the Lord shall stand, While the|years are roll- ing on.|Are roll- ing|
w: meet in that blest home, While the|years are roll- ing on.||
 z3/2 E>FG>F x5/2 | z3/2 [B,D]>[CE] x7 | [DF]>[DB] [DB]>[Ec] [Fd]<[Fd] e>[Ge] | %13
w: |||
w: |||
w: on, are roll- ing|on, Are|roll- ing on, are roll- ing on, Oh,|
w: |||
 [Fd]>[DB] [Ec]<[Ec] !fermata![DB]2 |] %14
w: |
w: |
w: the good we may be|
w: |
V:2
 x2 | x8 | x8 | x8 | x8 | x8 | x8 | x8 | x6 || x2 | c4 E<E E/ x3/2 | d6 F<FF/ F2 | x8 | x6 |] %14
V:3
 [B,,F,]>[B,,F,] | [B,,B,]>[B,,B,] [B,,B,]>[B,,F,] [B,,F,]<[B,,F,] [B,,F,]>[B,,F,] | %2
 [F,A,]>[F,A,] [F,A,]<[F,A,] [B,,F,B,]2 [B,,F,]>[B,,F,] | %3
 [B,,B,]>[B,,B,] [B,,B,]>[B,,F,] [B,,F,]<[B,,F,] [B,,F,]>[D,F,] | %4
 [C,G,]>[C,C] [C,C]<[C,C] [F,C]2 [F,A,]>[F,B,] | %5
 [F,C]>[F,B,] [F,A,]>[F,D] [B,,B,]2 [B,,B,]>[B,,F,] | %6
 [B,,F,]<[B,,F,] [E,G,]>[E,B,] [B,,B,]2 [B,,F,]>[B,,F,] | %7
 [B,,B,]>[B,,F,] [B,,F,]>[B,,F,] [B,,B,]2 [E,B,]>[E,B,] | %8
 [F,B,]>F, [F,A,]<[F,A,] !fermata![B,,F,B,]2 || z2 | z3/2 [F,A,]/ [F,A,]>[F,A,] [F,A,]3/2 z/ z2 | %11
 z3/2 [B,,B,]/ [B,,B,]>[B,,B,] [B,,B,]2 [B,,F,]>[B,,F,] x5/2 | %12
 [B,,B,]>[B,,F,] [B,,F,]>[B,,F,] [B,,F,B,]<[B,,B,] [E,B,]>[E,B,] | %13
 [F,B,]>F, [F,A,]<[F,A,] !fermata![B,,F,B,]2 |] %14
V:4
 x2 | x8 | x8 | x8 | x8 | x8 | x8 | x8 | x3/2 F,/ x4 || x2 | x8 | x21/2 | x8 | x3/2 F,/ x4 |] %14

